Quickit/src/img/icons/arr.svg

<svg width="6" height="10" viewBox="0 0 6 10" fill="none" xmlns="http://www.w3.org/2000/svg">
<path fill-rule="evenodd" clip-rule="evenodd" d="M0.195262 0.195262C0.455612 -0.0650874 0.877722 -0.0650874 1.13807 0.195262L5.13807 4.19526C5.39842 4.45561 5.39842 4.87772 5.13807 5.13807L1.13807 9.13807C0.877722 9.39842 0.455612 9.39842 0.195262 9.13807C-0.0650874 8.87772 -0.0650874 8.45561 0.195262 8.19526L3.72386 4.66667L0.195262 1.13807C-0.0650874 0.877722 -0.0650874 0.455612 0.195262 0.195262Z" fill="white"/>
</svg>

<svg xmlns="http://www.w3.org/2000/svg" width="6" height="10" fill="none" xmlns:v="https://vecta.io/nano"><path fill-rule="evenodd" d="M.195.195c.26-.26.682-.26.943 0l4 4c.26.26.26.682 0 .943l-4 4c-.26.26-.682.26-.943 0s-.26-.682 0-.943l3.529-3.529L.195 1.138c-.26-.26-.26-.682 0-.943z" fill="#fff"/></svg>
